X:1544
T:Dingle Dance
O:England
M:6/8
L:1/8
Q:1/4=
K:D
V:1
de dc Bc |BA FA FD |de dc Bc |BA FE3 |
de dc Bc |BA FA Bd |DE DA FD |EF ED3 :| |:
DE FA Bc |BA FA FE |DE FA Bc |BA FE3 |
DE FA Bc |BA FA Bd |DE DA FD |EF ED3 :| |:
g2 gf2 f|e2 ed BG |g2 gf2 f|e dB A3 |
g2 gf2 f|e2 ed eg |GA Bd BG |AB AG3 :| |:
GA Bd ef |ed Bd BA |GA Bd ef |ed BA3 |
GA Bd ef |ed Bd eg |GA Bd BG |AB AG2 e:| |:
f dd ed d|f ef dB A|B ee e2 A|B ee ef g|
f dd ed d|f ef dB A|B dd d2 A|B dd d2 [eg]:| |:
fg ae fg |f3 dB A|B ee e2 A|B ee ef g|
f ga ef g|f3 dB A|B dd d2 A|B dd d2 [eg]:|


